X:1
T:Christ the Lord, 87.87
T:Christ the Lord, 87.87
T:Edward William Leinbach, 1870
T:Public Domain Courtesy of the Cyber Hymnal™
C:Edward William Leinbach, 1870
Z:Public Domain
Z:Courtesy of the Cyber Hymnal™
%%score ( 1 2 ) ( 3 4 )
L:1/8
Q:1/4=107
M:4/4
K:Bb
V:1 treble 
V:2 treble 
V:3 bass 
V:4 bass 
V:1
 B2 (AG) F2 [DB]2 | [Fd]2 [Ec]2 [Ec]2 [DB]2 | [Fd]2 ([Fc][=EB]) (AB) ([Fc][GB]) | %3
 [FA]2 [=EG]2 [CF]4 | [CF]2 (GA) [DB]2 [DF]2 | [FA]2 (Bc) [Fd]2 [DB]2 | [Gd]2 [Gg]2 (fe) (dc) | %7
 [FB]2 [EA]2 [DB]4 |] %8
V:2
 B2 AG F2 x2 | x8 | x4 F2 x2 | x8 | x2 E2 x4 | x2 F2 x4 | x4 G2 G2 | x8 |] %8
V:3
 B,2 A,G, F,2 F,2 | [F,,F,]2 F,2 [B,,B,]2 [B,,B,]2 | B,2 C2 C2 ([A,C][B,D]) | C2 (CB,) [F,A,]4 | %4
 [F,A,]2 [F,C]2 [B,,B,]2 [B,,B,]2 | [F,C]2 F2 B,2 F2 | [G,=B,]2 [B,D]2 C2 [E,C]2 | %7
 [F,D]2 [F,,C]2 [B,,B,]4 |] %8
V:4
 B,2 (A,G,) F,2 F,2 | x2 F,2 x4 | B,2 (A,G,) (F,G,) x2 | C2 C,2 x4 | x8 | x2 (G,A,) B,2 (B,_A,) | %6
 x4 C2 x2 | x8 |] %8

